!!!COM: Claude Goudimel
!!!OMD: Psalm 150: Or soit loué l'Eternel
**kern	**kern	**kern	**kern
*part4	*part3	*part2	*part1
*staff4	*staff3	*staff2	*staff1
*clefF4	*clefGv2	*clefG2	*clefG2
*k[f#c#]	*k[f#c#]	*k[f#c#]	*k[f#c#]
!!LO:TX:omd:t=
*M4/4	*M4/4	*M4/4	*M4/4
=1	=1	=1	=1
2D	2A	2d	2d
2D	2A	2d	2f#
=2	=2	=2	=2
4AA	4A	4c#	4e
4D	4F#	4A	4d
4BB	4d	4d	4f#
4BB	4d	4B	4g
=3	=3	=3	=3
2AA	2c#	2e	2a
2D	2F#	2A	2d
=4	=4	=4	=4
2D	2A	2d	2f#
4AA	4A	4c#	4e
4D	4F#	4A	4d
=5	=5	=5	=5
4BB	4d	4d	4f#
4BB	4d	4B	4g
2AA	2c#	2e	2a
=6	=6	=6	=6
2r	2r	2r	2r
2D	2A	2d	2f#
=7	=7	=7	=7
2BB	2d	2f#	2b
4F#	4c#	4f#	4a
4F#	4A	4f#	4dd
=8	=8	=8	=8
4G	4B	4e	4dd
4A	4A	4e	4cc#
2D	2A	2f#	2dd
=9	=9	=9	=9
2D	2d	2f#	2a
2D	2A	2f#	2dd
=10	=10	=10	=10
4GG	4d	4g	4b
4D	4d	4f#	4a
4AA	4c#	4e	4a
4E	4B	4e	4g#X
=11	=11	=11	=11
2D	2d	2f#	2a
2r	2r	2r	2r
=12	=12	=12	=12
2D	2A	2d	2f#
2D	2F#	2d	2a
=13	=13	=13	=13
4GG	4G	4d	4b
4AA	4E	4c#	4a
4Cn	4E	4e	4g
4D	4A	[4d	4f#
=14	=14	=14	=14
2AA	2A	4d]	2e
.	.	4c#	.
2D	2A	2d	2d
=15	=15	=15	=15
2r	2r	2r	2r
2BB	2F#	2B	2d
=16	=16	=16	=16
2GG	2B	2d	2g
4D	4A	4d	4f#
4C#	4A	4A	4e
=17	=17	=17	=17
4BB	4B	4d	4f#
4E	4B	4e	4g
2D	2d	2f#	2a
=18	=18	=18	=18
2r	2r	2r	2r
2BB	2F#	2B	2d
=19	=19	=19	=19
2GG	2B	2d	2g
4D	4A	4d	4f#
4C#	4A	4A	4e
=20	=20	=20	=20
4BB	4B	4d	4f#
4E	4B	4e	4g
2D	2d	2f#	2a
=21	=21	=21	=21
2r	2r	2r	2r
2D	2A	2f#	2dd
=22	=22	=22	=22
2GG	2d	2g	2b
4D	4d	4f#	4a
4E	4B	4e	4g
=23	=23	=23	=23
4BB	4B	4d	4f#
4BB	4F#	2d	4d
2AA	2A	.	2e
.	.	4c#	.
=24	=24	=24	=24
1D	1A	1d	1d
==	==	==	==
*-	*-	*-	*-
!!!software: music21 v.9.7.1
!!!software: music21 v.8.3.0
!!!RDF**kern: > = above
!!!RDF**kern: < = below
